**kern	**kern	**dynam
*part1	*part1	*part1
*staff2	*staff1	*
*I"Piano	*	*
*clefF4	*clefG2	*
*k[f#c#g#d#]	*k[f#c#g#d#]	*
=1	=1	=1
*^	*	*
(4.F#'	[2.BB	(2.e 2.f# 2.an	.
4.G#'	.	.	.
=	=	=	=
4.A'	2.BB]	2.d#) 2.f#	.
4.B')	.	.	.
*v	*v	*	*
=	=	=
4E 4G#	4e	.
8r	8r	.
=:|!	=:|!	=:|!
*	*^	*
(4.GG# 4.E 4.G#	(4ee	8eeL	mp
.	.	8e	.
.	8dd#)	8bJ	<
=	=	=	=
4.AA) 4.E 4.A	(4dd#	8dd#L	.
.	.	8e	.
.	8cc#)	8aJ	.
(4.AA#X 4.F# 4.A#X	(4ff#	8ff#L	.
.	.	8f#	.
.	8ee)	8cc#J	.
=	=	=	=
4.BB) 4.F# 4.B	(4ee	8eeL	.
.	.	8f#	.
.	8dd#)	8bJ	.
(4.D# 4.B 4.d#	(4bb	8bbL	[ f
.	.	8b	.
.	8aan)	8ff#J	.
=	=	=	=
4.E 4.B 4.e	(4aa	8aaL	.
.	.	8b	.
.	8gg#)	8eeJ	.
4.F# 4.B 4.f#	(4gg#	8gg#L	.
.	.	8a	.
.	8ff#)	8dd#J	.
*	*v	*v	*
=	=	=
*-	*-	*-
!!!system-decoration: {(s1,s2)}
